**kern	**kern
*staff2	*staff1
*clefF4	*clefG2
*k[b-e-a-d-]	*k[b-e-a-d-]
*f:	*f:
*M2/4	*M2/4
4r	8f/L
.	8a-/J
=1	=1
8F\L	4cc\
8A-\J	.
4c\	8aa-\L
.	8ff\J
=2	=2
8a-\L	4cc\
8f\J	.
4c\	8ccc\L
.	8aa-\J
*clefG2	*
=3	=3
8cc/L	8gg\L
8a-/J	8cc\J
8g/L	8ff\L
8c/J	8dd-\J
=4	=4
8f/L	4b-\
8d-/J	.
4B-/	8aan\L
.	8bbn\J
=5	=5
8An/L	4.ccc\
8Bn/J	.
[4c/	.
.	8bbn\
=6	=6
8c/]	8aan\L
4.d-/	8gg\J
.	8ff\L
.	8ee-\J
=7	=7
4.e-/	8dd-\L
.	8cc\J
.	8b-/L
8a-/	8an/J
*clefF4	*
=8	=8
!!linebreak:original
*clefF4	*
8Dn\	4r
4DDn/	.
.	16cc/LL
.	16a-/
8EEn/	16cc/
.	16a-/JJ
=9	=9
8FF/L	8f/L
8F/J 8A-/ 8c/	8f/J
8F\L 8A-\ 8c\	8f/L
8F\J 8A-\ 8c\	8f/J
=10	=10
8F\ 8A-\ 8c\	8f/
8r	8r
8DDn/L	16ff\LL
.	16cc\
8EEn/J	16ff\
.	16cc\JJ
=11	=11
8FF/L	8f/L
8F/J 8A-/ 8c/	8f/J
8F\L 8A-\ 8c\	8f/L
8F\J 8A-\ 8c\	8f/J
=12	=12
8F\ 8A-\ 8c\	8f/
8r	8r
8DDn/L	16aa-\LL
.	16ff\
8EEn/J	16aa-\
.	16ff\JJ
=13	=13
8FF/L	8g-/L
8F/J 8A-/ 8c/	8f/J
8CC/L	16bb-\LL
.	16ee-\
8DDn/J	16bb-\
.	16ee-\JJ
=14	=14
!!linebreak:original
8EE-/L	8g/L
8E-/J 8G-/ 8B-/	8g-/J
8AAA-/L	16ccc\LL
.	16aa-\
8BBB-/J	16ee-\
.	16cc\JJ
=15	=15
8CC/L	8b-\L
8DD-/J	8b-\J
8EE-/L	8a-/L
8FF/J	8a-/J
=16	=16
8GG/	8g/
8r	8r
16F\LL	8r
16G\	.
16C\	8g/
16G\JJ	.
=17	=17
16F\LL	8a-/L
16G\	.
16C\	8aa-/J
16G\JJ	.
16F\LL	8gg\L
16G\	.
16C\	8ff\J
16G\JJ	.
=18	=18
!!linebreak:original
*M3/4	*M3/4
16D-\LL	16ee-\LL
16G\	16ddn\
16C\	16ee-\
16G\JJ	16ff\JJ
16D-\LL	8gg\L
16G\	.
16C\	8gg\J
16G\JJ	.
16Dn/LL	8ccc#\L
16C#/	.
16G#/	8aan\J
16C#/JJ	.
=19	=19
*M2/4	*M2/4
8FF#/L	4.ff#\
16C#/L	.
16An/JJ	.
4f#\	.
.	8fff\
=20	=20
8FF/L 8C/	16eee-\LL
.	16dddn\
8E-/J	16ccc\
.	16gg\JJ
4G\	8bb-\L 8ddd\
.	8ddn\J
=21	=21
8e-\L	8bb-\L 8ddd-\
8c\J	8cc\J
[4G\	8bb-\L 8ddd-\
.	8cc\J
=22	=22
!!linebreak:original
16G\LL]	[4gg-\
16An\	.
16B-\	.
16c\JJ	.
8d-\L	16gg-\LL]
.	16ff\
8d-\J	16een\
.	16ff\JJ
=23	=23
8a-\L	[4gg-\
8d-\J	.
8a-\L	16gg-\LL]
.	16ff\
8c\J	16een\
.	16ff\JJ
=24	=24
8Bn\L	8gg\L
8en\J 8g\	8een\J
4CC/ 4GG/	8eee-\L
.	8ddd-\J
=25	=25
8e-\L	4ccc\
8d-\J	.
4c\	8ccc\L
.	8bb-\J
=26	=26
8c\L	4aa-\
8B-\J	.
4A-\	8ee-\L
.	8ff\J
=27	=27
8E-\L	8gg\L
8F\J	8aa-\J
8G\L	8bb-\L
8A-\J	8ccc\J
=28	=28
!!pagebreak:original
8B-\L	4.ff\
8c\J	.
[4FF/ [4C/ [4F/	.
.	8aa-\
=29	=29
4FF/] 4C/] 4F/]	4ccc\
[4FF/ [4C/ [4G-/	8cc\L
.	8aa-\J
=30	=30
4FF/] 4C/] 4G-/]	4ff\
[4FF/ [4C/ [4Gn/	8b-\L
.	8dd-\J
=31	=31
4FF/] 4C/] 4G/]	4ff\
[4FF/ [4C/ [4A-/	8f/L
.	8ddn/J
=32	=32
4FF/] 4C/] 4A-/]	4b-\
[4GG-/ 4GG/ [4D-/	[4bb-\
=33	=33
*M3/4	*M3/4
2.GG-\_ 2.D-\_ [2.B-\ [2.dn\	16bb-\LL]
.	16aan\
.	16bb-\
.	16ccc\JJ
.	8ddd-\L
.	8bb-\J
.	8aa\L
.	8ddn\J
=34	=34
*M2/4	*M2/4
2GG-\_ 2D-\_ 2B-\_ 2d\_	16ccc\LL
.	16aa-\JJ
.	4gg\
.	8cc\
=35	=35
!!linebreak:original
8GG-\] 8D-\] 8B-\] 8d\]	8dd-\L
8r	8ee-\J
4r	8ff\L
.	8gg-\J
*clefG2	*
=36	=36
4c/ 4en/ 4b-/	4ddd-\
*clefF4	*
8FF/L	8ccc\L
8AA-/J	16een\L
.	16gg\JJ
=37	=37
4C/	16ff\LL
.	16aa-\
.	16gg\
.	16een\JJ
8A-\L	16ff\LL
.	16aa-\
8F\J	16gg\
.	16ee\JJ
=38	=38
4C/	8ff\
.	8r
8c\L	4r
8A-\J	.
=39	=39
8G/L	8ccc\L
8C/J	8aa-\J
8F\L	8gg\L
8D-\J	8cc\J
=40	=40
4BB-/	8ff\L
.	8dd-\J
8AAn/L	4b-\
8BBn/J	.
=41	=41
4.C/	8aa-\L
.	8bbn\J
.	[4ccc\
8Dn\	.
=42	=42
!!linebreak:original
4En\	8ccc\L]
.	8bb-\J
4An\	8cc\L
.	8aa-\J
=43	=43
8B-\	8gg\
8r	4ff\
16C/LL	.
16AA-/	.
16C/	8f/
16AA-/JJ	.
=44	=44
8FF/L	4b-\
8F/J 8A-/ 8c/	.
8F\L 8A-\ 8c\	4a-/
8F\J 8A-\ 8c\	.
=45	=45
8F\ 8A-\ 8c\	4r
8r	.
[4EE-/ [4BB-/	[8ee-\L 8bb-\
.	8ee-\J] 8ccc\
=46	=46
8EE-/L] 8BB-/]	4.ddd-\
8G/J	.
8d-\L	.
8f\J	8ccc\
*clefG2	*
=47	=47
[4a-/	8bb-\L
.	8aa-\J
[4d-/ 4a-/_	8gg\L
.	8ff\J
=48	=48
8c/ 8d-/] 8a-/]	8ee-\
8r	8r
*clefF4	*
8C\ 8B-\	8f/ 8g/ 8dd-/
8r	8r
=49	=49
!!linebreak:original
8F\ 8A-\	8f/ 8a-/ 8cc/
8r	8r
4r	4r
==	==
*-	*-
